X: 31426
T: Paddy Ryan's Dream
R: reel
M: 4/4
K: Adorian
AE~E2 cAB(G|(3EFG) DB, G,B,DB,|A,E (3EEE B,EAB|ceBc ABcB|
AE {D}E/{G}E/{D}E cE{D}E/{G}E/{D}E|DB, (3B,B,B, G,B,DB,|A,E (3EEE B,EAB|ceBc A3G,|
{^G,}A,2~A,2 EA,~A,2|EB,DB, EB,DB,|A,E ~E2 B,EAB|ceBc ABcB|
AGED GAGA|(3Bcd AF GEDB,|A,E ~E2 B,EAB|ceBc ABcB||
|:Aa{b}ag aecB|Ag{a}gf gdBG|Aa (3aaa a(g{a}gf|{a}fe)d(c {d}cB)AG|
Aa{b}ag agef|g2{a}gf gdBG|A3 B cBcd|edcB A3G:|

